wall-sconce-round.svg

<svg fill="currentColor" viewBox="0 0 24 24"><path d="M13 19v-3h-2v3zm6.09-2.5 1.41-1.41-1.77-1.77-1.41 1.41zm-14.18 0 1.77-1.77-1.41-1.41-1.77 1.77zM20 12c0-2.86-1.5-5.5-4-6.93s-5.5-1.43-8 0S4 9.14 4 12z"/></svg>

<svg  viewBox="0 0 24 24" fill="currentColor"><path  d="M13 19V16H11V19H13M19.09 16.5L20.5 15.09L18.73 13.32L17.32 14.73L19.09 16.5M4.91 16.5L6.68 14.73L5.27 13.32L3.5 15.09L4.91 16.5M20 12C20 9.14 18.5 6.5 16 5.07S10.5 3.64 8 5.07 4 9.14 4 12H20Z"/></svg>
